X:1
T:Hold Fast
T:Charles Hutchinson Gabriel
T:Hold Fast
T:Public Domain
T:Public Domain
T:Public Domain
C:Charles Hutchinson Gabriel
Z:Public Domain
%%score ( 1 2 ) ( 3 4 )
L:1/8
M:4/4
K:Eb
V:1 treble 
V:2 treble 
V:3 bass 
V:4 bass 
V:1
 E2 | [EG]3 [B,F] [B,E]>[B,F] [EG]>[EA] | [EB]6 [EG]2 | [DA]2 F2 [EG]3 [B,E] | %4
w: 1.~O|or on a treach- erous sea,|Tho’ rent|thy ev- ery sail|
w: 2.~Hold|be strong and ban- ish fear,|Look up,|be- hold the har-|
w: 3.~Tho’|es roll, and waves run high,|The Gos-|pel life- boat still|
w: 4.~Oh,|or! lift a- gain thine eyes,|Be- hold|with joy and glad|
w: 5.~Oh,|of rest from toil and care,|Who would|not long to en-|
 [B,F]2 [EF]2 [DF]2 [FA]2 | [EG]3 [B,F] [B,E]>[B,F] [EG]>[EA] | [EB]6 (E^C) | %7
w: be, Tho’ all thy|earth- ly hopes are past, And|thou art *|
w: near; A cry of|joy from yon- der strand, Where|loved ones *|
w: nigh; It can- not|from its course be driv’n, ’Tis|sure to *|
w: prise A glor- ious|morn, that dawns for thee, Far,|far be- *|
w: there, Where ev- ery|throb of pain shall cease, And|ev- ery *|
 [DF]2 [C=A]2 [B,B]3 [Ec] | [DB]2 [E=A]2 [DB]2 ||"^Refrain" [DB]2 | (E2 E2 B>)A G>B | %11
w: ing to the mast.||||
w: to clasp thy hand.|Hold fast a|mo-|ment * * more, Be- hold|
w: the port of Heav’n.||||
w: a storm- y sea.||||
w: be hushed to peace!||||
 (E2 E2 E2) [EG]2 | [FA]4- [FA]>[EG] [DF]>[EG] | [FA]2 [Ac]2 [GB]2 [FA]2 | (E2 z) F (E>G) (G>A) x | %15
w: ||||
w: on * * the|shore; * Tho’ scarce a|beam thine eye can|see, Thy Sav- * ior *|
w: ||||
w: ||||
w: ||||
 [EB]2 [E_d]2 [Ec]2 [Ec]2 | [EB]2 [Ad]2 [Ge]3 [FA] | [EG]2 [DF]2 E2 |] %18
w: |||
w: cue thee. * *|||
w: |||
w: |||
w: |||
V:2
 E2 | x8 | x8 | x2 F2 x4 | x8 | x8 | x6 G2 | x8 | x6 || x2 | B4- E2 E2 | B6 x2 | x8 | x8 | %14
w: sail-|||may|||cling-||||||||
w: fast,|||bor|||wait||||a light up-||||
w: surg-|||is|||reach||||||||
w: sail-|||sur-|||yond||||||||
w: land|||ter|||sigh||||||||
 G3 (E2 E2) E2 | x8 | x8 | x4 E2 |] %18
w: ||||
w: comes to * res-||||
w: ||||
w: ||||
w: ||||
V:3
 [E,G,]2 | [E,B,]3 [E,A,] [E,G,]>[E,A,] [E,B,]>[E,F,] | [E,G,]6 [E,B,]2 | %3
w: ~|~ ~ ~ ~ ~ ~|~ ~|
 [F,B,]2 [D,B,]2 [E,B,]3 [E,G,] | [D,B,]2 [C,=A,]2 [B,,B,]2 [B,,B,]2 | %5
w: ~ ~ ~ ~|~ ~ ~ ~|
 [E,B,]3 [E,A,] [E,G,]>[E,A,] [E,B,]>[E,F,] | [E,G,]6 (E,=E,) | [F,B,]2 [E,F,]2 [D,F,]3 [E,G,] | %8
w: ~ ~ ~ ~ ~ ~|~ ~ *|~ ~ ~ ~|
 F,2 [F,,F,]2 [B,,F,]2 || [B,,A,]2 | [E,G,]2 [E,G,]2 [E,G,]2 [E,B,]2 | %11
w: ~ ~ ~|~|Hold fast a mo-|
 [E,G,]2 [E,G,]2 [E,G,]2 [E,B,]2 | [B,,B,]2 [B,,B,]2 [B,,B,]2 [B,,B,]2 | %13
w: ment more ~ ~|a light up- on|
 [B,,B,]2 [B,,B,]2 [C,B,]2 [D,B,]2 | [E,B,]2 [E,B,]2 [E,G,]2 [E,B,]2 x | [E,G,]2 [G,B,]2 A,2 A,2 | %16
w: |||
 [G,B,]2 [F,B,]2 [E,B,]3 [A,,C] | [B,,B,]2 [B,,A,]2 [E,G,]2 |] %18
w: ||
V:4
 x2 | x8 | x8 | x8 | x8 | x8 | x6 B,2 | x8 | F,2 x4 || x2 | x8 | x8 | x8 | x8 | x9 | x4 A,2 A,2 | %16
w: ||||||~||~||||||||
 x8 | x6 |] %18
w: ||

